X: 1
T: the Banks Of Lough Gowna
B: O'Neill (Music of Ireland: 1850 Melodies) 1903 #1060
B: O'Neill (Dance Music of Ireland: 1001 Gems) 1907; #264
M: 6/8
L: 1/8
R: jig
K: Bmin
dc \
| "Bm"BcB BAF | "A7"FEF "D"DFA | "Bm"BcB BAF | "D"d2e fed  \
| "Bm"BcB BAF | "A7"FEF "D"DFA | "D"def "A7"geg | "Bm"fdB B :|
|: Bc \
| "D"def ~a3 | "D"afb afe | "D"dFA def | "A7"geg fdB  \
| "D"def ~a3 | "D"afb afe | "D"def "A7"geg | "Bm"fdB B :|
